svgs/asus_sound_recorder.svg

<svg width="24" height="24" viewBox="0 0 24 24" fill="none" xmlns="http://www.w3.org/2000/svg">
<path d="M17.3 11C17.3 14 14.76 16.1 12 16.1C9.24 16.1 6.7 14 6.7 11H5C5 14.41 7.72 17.23 11 17.72V21H13V17.72C16.28 17.23 19 14.41 19 11M10.8 4.9C10.8 4.24 11.34 3.7 12 3.7C12.66 3.7 13.2 4.24 13.2 4.9L13.19 11.1C13.19 11.76 12.66 12.3 12 12.3C11.34 12.3 10.8 11.76 10.8 11.1M12 14C12.7956 14 13.5587 13.6839 14.1213 13.1213C14.6839 12.5587 15 11.7956 15 11V5C15 4.20435 14.6839 3.44129 14.1213 2.87868C13.5587 2.31607 12.7956 2 12 2C11.2044 2 10.4413 2.31607 9.87868 2.87868C9.31607 3.44129 9 4.20435 9 5V11C9 11.7956 9.31607 12.5587 9.87868 13.1213C10.4413 13.6839 11.2044 14 12 14V14Z" fill="black"/>
</svg>

<svg xmlns="http://www.w3.org/2000/svg" width="24" height="24" fill="none" viewBox="0 0 24 24"><path fill="#000" d="M17.3 11c0 3-2.54 5.1-5.3 5.1S6.7 14 6.7 11H5c0 3.41 2.72 6.23 6 6.72V21h2v-3.28c3.28-.49 6-3.31 6-6.72m-8.2-6.1c0-.66.54-1.2 1.2-1.2.66 0 1.2.54 1.2 1.2l-.01 6.2c0 .66-.53 1.2-1.19 1.2-.66 0-1.2-.54-1.2-1.2M12 14a3 3 0 0 0 3-3V5a3 3 0 0 0-6 0v6a3 3 0 0 0 3 3"/></svg>
